X:40
T: Dusty Windowsill
C: Johnny Harling
R: jig
M: 6/8
L: 1/8
K: Ador
E | A2 B cBA | e2 d edB | G2 G EFG | DEG EFG |
A2 B cBA | e2 d efg | age dBG | ABA A2 :|
e | aba age | dBd g2 g | eaa age | dBG AGE |
DEG DGG | EAA ABc | Bed BAG | ABA A2 :|
E | AAA g>f-f | AAA gfe | GGG e>d-d | GAG edB |
AAA g>f-f | AAA efg | age dBG | ABA A2 :|
